static/icons/basic/reflect.svg

<svg width="32" height="32" viewBox="0 0 32 32" fill="none" xmlns="http://www.w3.org/2000/svg">
<path d="M15.9993 4V8M15.9993 14V18M15.9993 24V28M4.38304 10.6541L10.2336 15.1545C10.6076 15.4422 10.7946 15.5861 10.8618 15.7614C10.9207 15.915 10.9207 16.085 10.8618 16.2386C10.7946 16.4139 10.6076 16.5578 10.2336 16.8455L4.38304 21.3459C3.83155 21.7701 3.55581 21.9822 3.32451 21.9794C3.12328 21.9769 2.93393 21.8837 2.80929 21.7257C2.66602 21.5441 2.66602 21.1962 2.66602 20.5004V11.4996C2.66602 10.8038 2.66602 10.4559 2.80929 10.2743C2.93393 10.1163 3.12328 10.0231 3.32451 10.0206C3.55581 10.0178 3.83155 10.2299 4.38304 10.6541ZM27.6157 10.6541L21.7651 15.1545C21.3911 15.4422 21.2041 15.5861 21.1369 15.7614C21.078 15.915 21.078 16.085 21.1369 16.2386C21.2041 16.4139 21.3911 16.5578 21.7651 16.8455L27.6157 21.3459C28.1671 21.7701 28.4429 21.9822 28.6742 21.9794C28.8754 21.9769 29.0648 21.8837 29.1894 21.7257C29.3327 21.5441 29.3327 21.1962 29.3327 20.5004V11.4996C29.3327 10.8038 29.3327 10.4559 29.1894 10.2743C29.0648 10.1163 28.8754 10.0231 28.6742 10.0206C28.4429 10.0178 28.1671 10.2299 27.6157 10.6541Z" stroke="#121315" stroke-width="2.66667" stroke-linecap="round" stroke-linejoin="round"/>
</svg>

<svg xmlns="http://www.w3.org/2000/svg" width="32" height="32" fill="none"><path stroke="#121315" stroke-linecap="round" stroke-linejoin="round" stroke-width="2.667" d="M16 4v4m0 6v4m0 6v4M4.382 10.654l5.85 4.5c.375.288.562.432.629.607a.666.666 0 0 1 0 .478c-.067.175-.254.319-.628.607l-5.851 4.5c-.551.424-.827.636-1.058.633a.667.667 0 0 1-.516-.253c-.143-.182-.143-.53-.143-1.226v-9c0-.696 0-1.044.143-1.226a.667.667 0 0 1 .516-.253c.23-.003.507.209 1.058.633m23.233 0-5.85 4.5c-.375.288-.562.432-.63.607a.666.666 0 0 0 0 .478c.068.175.255.319.63.607l5.85 4.5c.551.424.827.636 1.058.633a.667.667 0 0 0 .515-.253c.144-.182.144-.53.144-1.226v-9c0-.696 0-1.044-.144-1.226a.667.667 0 0 0-.515-.253c-.231-.003-.507.209-1.058.633"/></svg>
